assets/ai/ai-dryad-square.svg

<svg xmlns="http://www.w3.org/2000/svg" width="100%" height="100%" viewBox="-75.52 -43.52 599.04 599.04"><path d="M 48 32 C 21.5 32 0 53.5 0 80 L 0 432 C 0 458.5 21.5 480 48 480 L 400 480 C 426.5 480 448 458.5 448 432 L 448 80 C 448 53.5 426.5 32 400 32 L 48 32 z M 223.06445 96.007812 C 227.66981 96.055033 232.24284 96.31701 236.76367 96.792969 C 341.40384 107.7946 389.75046 193.54408 383.45703 266.66016 C 374.52364 370.38511 291.36335 416.38637 225.75 415.99805 C 227.97651 393.13847 231.23037 370.55895 245.07031 351.70117 C 253.15022 340.68637 265.80324 337.20684 279.50977 338.74609 C 291.29637 340.09796 300.72388 341.58375 312.53711 342.11914 C 318.9906 341.69098 326.25661 340.90012 333.58984 336.71094 C 316.42999 335.19845 283.79035 333.23085 283.07031 325.81641 C 283.60369 316.20691 294.48291 310.43796 305.20312 304.20117 C 323.56318 293.49416 337.25622 279.57521 345.34961 260.00781 C 345.8028 258.93699 349.04288 248.71258 348.88281 249.50195 C 328.85625 274.39594 306.67116 291.6879 285.95117 307.85547 C 279.01789 313.23587 270.0966 316.28743 261.73633 319.48633 C 258.45618 320.74452 251.80339 320.7435 250.91016 319.07031 C 249.24364 315.8985 249.53751 310.66626 250.9375 307.05273 C 256.27098 293.17352 264.14973 280.04315 267.75 265.80273 C 272.64342 246.55664 274.7371 225.90585 276.4707 206.09766 C 278.40407 184.06769 277.79113 162.15964 278.25781 139.99609 C 278.33761 136.48941 278.25647 130.14472 277.05664 126.26367 C 272.89672 131.04171 272.72461 138.76367 272.72461 138.76367 C 268.95118 159.6694 269.92358 188.99458 265.76367 188.00391 C 261.59029 187.01359 247.1908 143.28766 250.85742 117.99219 C 241.45736 123.80078 244.53793 144.47897 247.95117 156.75195 C 250.85799 167.17791 254.2561 178.04674 258.10938 187.65625 C 262.17595 197.77444 260.25679 209.56548 260.05664 220.51367 C 259.9232 227.56691 258.09633 234.68583 256.34961 241.60547 C 254.17633 250.14452 249.22958 252.56771 242.49609 246.90625 C 234.50952 240.20103 227.21666 232.17118 221.36328 223.51172 C 204.53666 198.60453 190.80305 172.22399 188.05664 141.42773 C 187.72342 137.82735 186.26925 134.33411 185.0293 129.62305 C 179.46941 143.79648 182.37567 150.83574 183.40234 160.52539 C 187.08244 195.0556 206.57648 222.33281 225.89648 249.5957 C 235.22982 262.79202 238.14904 276.55073 232.32227 292.79883 C 225.4557 311.96439 213.61529 318.29574 193.77539 310.80078 C 171.77533 302.46264 163.33642 284.16568 157.89648 262.45703 C 153.26991 243.96047 152.42904 222.57349 150.0957 191.58984 C 148.92248 175.8237 146.33628 165.41226 140.12305 164.3418 C 141.28316 171.87702 144.04387 183.81368 145.15039 192.13867 C 147.20372 207.58346 146.68339 217.92971 144.75 233.36133 C 144.17651 238.15291 140.89734 241.75216 139.23047 240.77539 C 125.99062 233.09306 121.12357 204.49199 119.76367 192.76758 C 112.49715 201.38677 120.69617 230.32359 138.41602 252.62109 C 144.57602 259.71456 147.53612 268.07814 151.96289 276.61719 C 155.45633 283.40291 154.89649 290.1221 149.50977 295.60938 C 143.92327 301.32428 135.8162 302.38287 128.49609 300.48242 C 124.41603 299.4116 119.39027 297.20305 113.2168 295.28906 C 119.69689 305.13973 129.93674 305.2201 137.66992 306.10352 C 145.43008 306.98696 152.04331 306.4375 159.83008 306.4375 C 172.57664 306.4517 179.25563 317.09097 185.62891 325.66992 C 202.74901 348.73047 202.52223 373.79758 194.78906 399.88281 C 193.82911 403.13514 193.33713 406.5354 192.45703 409.81445 C 192.16354 410.93867 191.34906 411.94329 190.78906 412.93359 C 102.09579 392.2822 55.683849 313.07523 65.230469 239.50391 C 77.755619 142.85153 153.98406 95.299507 223.06445 96.007812 z"/></svg>

<svg xmlns="http://www.w3.org/2000/svg" width="100%" height="100%" viewBox="-75.52 -43.52 599.04 599.04"><path d="M48 32C21.5 32 0 53.5 0 80v352c0 26.5 21.5 48 48 48h352c26.5 0 48-21.5 48-48V80c0-26.5-21.5-48-48-48H48zm175.064 64.008c4.606.047 9.179.309 13.7.785 104.64 11.002 152.986 96.751 146.693 169.867-8.933 103.725-92.094 149.726-157.707 149.338 2.227-22.86 5.48-45.44 19.32-64.297 8.08-11.015 20.733-14.494 34.44-12.955 11.786 1.352 21.214 2.838 33.027 3.373 6.454-.428 13.72-1.219 21.053-5.408-17.16-1.513-49.8-3.48-50.52-10.895.534-9.61 11.413-15.378 22.133-21.615 18.36-10.707 32.053-24.626 40.147-44.193.453-1.071 3.693-11.295 3.533-10.506-20.027 24.894-42.212 42.186-62.932 58.353-6.933 5.38-15.854 8.432-24.215 11.631-3.28 1.259-9.933 1.257-10.826-.416-1.666-3.171-1.372-8.404.028-12.017 5.333-13.88 13.212-27.01 16.812-41.25 4.893-19.246 6.987-39.897 8.72-59.705 1.934-22.03 1.321-43.938 1.788-66.102.08-3.507-.002-9.851-1.201-13.732-4.16 4.778-4.332 12.5-4.332 12.5-3.774 20.905-2.801 50.23-6.961 49.24-4.174-.99-18.573-44.716-14.907-70.012-9.4 5.809-6.32 26.487-2.906 38.76 2.907 10.426 6.305 21.295 10.158 30.904 4.067 10.118 2.148 21.91 1.948 32.858-.134 7.053-1.96 14.172-3.707 21.091-2.174 8.54-7.12 10.963-13.854 5.301-7.986-6.705-15.28-14.735-21.133-23.394-16.826-24.907-30.56-51.288-33.306-82.084-.334-3.6-1.788-7.094-3.028-11.805-5.56 14.173-2.653 21.213-1.627 30.902 3.68 34.53 23.174 61.808 42.494 89.07 9.334 13.197 12.253 26.956 6.426 43.204-6.866 19.165-18.707 25.497-38.547 18.002-22-8.338-30.439-26.635-35.879-48.344-4.626-18.497-5.467-39.884-7.8-70.867-1.174-15.766-3.76-26.178-9.973-27.248 1.16 7.535 3.92 19.472 5.027 27.797 2.054 15.444 1.533 25.79-.4 41.222-.573 4.792-3.853 8.391-5.52 7.414-13.24-7.682-18.106-36.283-19.466-48.007-7.267 8.619.932 37.556 18.652 59.853 6.16 7.094 9.12 15.457 13.547 23.996 3.493 6.786 2.933 13.505-2.453 18.992-5.587 5.715-13.694 6.774-21.014 4.873-4.08-1.07-9.106-3.279-15.28-5.193 6.48 9.85 16.72 9.931 24.454 10.815 7.76.883 14.373.334 22.16.334 12.747.014 19.426 10.653 25.799 19.232 17.12 23.06 16.893 48.128 9.16 74.213-.96 3.252-1.452 6.652-2.332 9.931-.293 1.125-1.108 2.13-1.668 3.12-88.693-20.652-135.105-99.859-125.559-173.43C77.756 142.852 153.984 95.3 223.064 96.008z"/></svg>
